packages/core/assets/Icons/arrow_double_down.svg

<svg viewBox="0 0 20 20" fill="none" xmlns="http://www.w3.org/2000/svg">
<path d="M10.0001 13.4792L13.2501 10.25C13.4028 10.0972 13.5938 10.0174 13.823 10.0104C14.0521 10.0035 14.2501 10.0833 14.4167 10.25C14.5695 10.4028 14.6459 10.5972 14.6459 10.8333C14.6459 11.0695 14.5695 11.2639 14.4167 11.4167L10.5834 15.25C10.5001 15.3333 10.4098 15.3924 10.3126 15.4271C10.2153 15.4618 10.1112 15.4792 10.0001 15.4792C9.88894 15.4792 9.78477 15.4618 9.68755 15.4271C9.59033 15.3924 9.50005 15.3333 9.41672 15.25L5.58338 11.4167C5.43061 11.2639 5.35074 11.0729 5.3438 10.8438C5.33686 10.6146 5.41672 10.4167 5.58338 10.25C5.73616 10.0972 5.93061 10.0208 6.16672 10.0208C6.40283 10.0208 6.59727 10.0972 6.75005 10.25L10.0001 13.4792ZM10.0001 8.47918L13.2501 5.25001C13.4028 5.09723 13.5938 5.01737 13.823 5.01043C14.0521 5.00348 14.2501 5.08334 14.4167 5.25001C14.5695 5.40279 14.6459 5.59723 14.6459 5.83334C14.6459 6.06945 14.5695 6.2639 14.4167 6.41668L10.5834 10.25C10.5001 10.3333 10.4098 10.3924 10.3126 10.4271C10.2153 10.4618 10.1112 10.4792 10.0001 10.4792C9.88894 10.4792 9.78477 10.4618 9.68755 10.4271C9.59033 10.3924 9.50005 10.3333 9.41672 10.25L5.58338 6.41668C5.43061 6.2639 5.35074 6.07293 5.3438 5.84376C5.33686 5.61459 5.41672 5.41668 5.58338 5.25001C5.73616 5.09723 5.93061 5.02084 6.16672 5.02084C6.40283 5.02084 6.59727 5.09723 6.75005 5.25001L10.0001 8.47918Z" fill="currentColor"/>
</svg>

<svg xmlns="http://www.w3.org/2000/svg" width="20" height="20" fill="none" viewBox="0 0 20 20">
  <path fill="#201F1F" d="m10 13.48 3.25-3.23a.814.814 0 0 1 .573-.24.776.776 0 0 1 .594.24.79.79 0 0 1 .229.583.79.79 0 0 1-.23.584l-3.833 3.833a.731.731 0 0 1-.27.177.923.923 0 0 1-.313.052.923.923 0 0 1-.312-.052.731.731 0 0 1-.271-.177l-3.834-3.833a.814.814 0 0 1-.24-.573.776.776 0 0 1 .24-.594.79.79 0 0 1 .584-.23.79.79 0 0 1 .583.23L10 13.48Zm0-5 3.25-3.23a.814.814 0 0 1 .573-.24.775.775 0 0 1 .594.24.79.79 0 0 1 .229.583.79.79 0 0 1-.23.584l-3.833 3.833a.731.731 0 0 1-.27.177.923.923 0 0 1-.313.052.923.923 0 0 1-.312-.052.731.731 0 0 1-.271-.177L5.583 6.417a.814.814 0 0 1-.24-.573.776.776 0 0 1 .24-.594.79.79 0 0 1 .584-.23.79.79 0 0 1 .583.23L10 8.48Z"/>
</svg>
